suite-common/icons/assets/icons/tagMinimal.svg

<svg xmlns="http://www.w3.org/2000/svg" viewBox="0 0 18 18">
  <path fill-rule="evenodd" d="M10.095.96c-.586.025-.798.074-1.218.283-.518.257-.291.044-4.393 4.126-2.8 2.786-3.289 3.291-3.409 3.522-.139.269-.185.82-.098 1.188.068.289.229.549.55.886.51.536 3.953 3.985 4.916 4.925.864.842.955.922 1.155 1.014.277.127.468.166.807.166.31 0 .555-.055.818-.184.16-.078.442-.35 2.339-2.255 2.574-2.586 4.819-4.886 4.961-5.083.28-.391.475-.926.52-1.433.018-.199.026-1.456.021-3.165l-.009-2.835-.128-.267a1.4 1.4 0 0 0-.317-.45c-.226-.219-.462-.365-.666-.411-.175-.04-5.028-.062-5.849-.027m5.473 3.457a174 174 0 0 1-.024 2.907l-.022.919-.095.191c-.069.141-.206.309-.521.641-1.731 1.826-6.358 6.481-6.468 6.509-.054.014-.11-.004-.198-.062-.067-.045-1.402-1.357-2.966-2.916L2.43 9.77v-.255l3.173-3.149a505 505 0 0 1 3.472-3.427c.419-.39.558-.451 1.076-.479a135 135 0 0 1 2.906-.025l2.513-.005zm-3.643-1.115c-.489.039-1.017.288-1.417.669-.336.318-.53.628-.687 1.09-.071.211-.079.28-.081.699-.002.405.006.494.067.69.136.444.349.801.661 1.11a2.4 2.4 0 0 0 1.862.711 2.4 2.4 0 0 0 1.433-.522c.402-.306.758-.846.894-1.359.065-.243.073-.926.014-1.17a2.7 2.7 0 0 0-.639-1.159q-.819-.863-2.107-.759m.629 1.181c.31.462.582.883.605.937.025.059.041.208.041.372 0 .251-.008.29-.095.454a1.03 1.03 0 0 1-.471.449c-.211.103-.588.099-.818-.009a1.07 1.07 0 0 1-.502-.502 1.06 1.06 0 0 1-.008-.805c.082-.183.335-.435.521-.52.144-.065.559-.082.7-.028.045.017.086.026.092.02a4 4 0 0 0-.223-.429c-.374-.669-.466-.839-.435-.807.016.016.283.407.593.868"/>
</svg>

<svg xmlns="http://www.w3.org/2000/svg" viewBox="0 0 18 18"><path d="M10.095 0.960 C 9.509 0.985,9.297 1.034,8.877 1.243 C 8.359 1.500,8.586 1.287,4.484 5.369 C 1.684 8.155,1.195 8.660,1.075 8.891 C 0.936 9.160,0.890 9.711,0.977 10.079 C 1.045 10.368,1.206 10.628,1.527 10.965 C 2.037 11.501,5.480 14.950,6.443 15.890 C 7.307 16.732,7.398 16.812,7.598 16.904 C 7.875 17.031,8.066 17.070,8.405 17.070 C 8.715 17.070,8.960 17.015,9.223 16.886 C 9.383 16.808,9.665 16.536,11.562 14.631 C 14.136 12.045,16.381 9.745,16.523 9.548 C 16.803 9.157,16.998 8.622,17.043 8.115 C 17.061 7.916,17.069 6.659,17.064 4.950 L 17.055 2.115 16.927 1.848 C 16.829 1.645,16.754 1.538,16.610 1.398 C 16.384 1.179,16.148 1.033,15.944 0.987 C 15.769 0.947,10.916 0.925,10.095 0.960 M15.568 4.417 C 15.567 5.511,15.556 6.819,15.544 7.324 L 15.522 8.243 15.427 8.434 C 15.358 8.575,15.221 8.743,14.906 9.075 C 13.175 10.901,8.548 15.556,8.438 15.584 C 8.384 15.598,8.328 15.580,8.240 15.522 C 8.173 15.477,6.838 14.165,5.274 12.606 L 2.430 9.770 2.430 9.643 L 2.430 9.515 5.603 6.366 C 7.347 4.635,8.910 3.092,9.075 2.939 C 9.494 2.549,9.633 2.488,10.151 2.460 C 10.368 2.449,11.676 2.437,13.057 2.435 L 15.570 2.430 15.568 4.417 M11.925 3.302 C 11.436 3.341,10.908 3.590,10.508 3.971 C 10.172 4.289,9.978 4.599,9.821 5.061 C 9.750 5.272,9.742 5.341,9.740 5.760 C 9.738 6.165,9.746 6.254,9.807 6.450 C 9.943 6.894,10.156 7.251,10.468 7.560 C 10.976 8.063,11.613 8.306,12.330 8.271 C 12.890 8.243,13.317 8.087,13.763 7.749 C 14.165 7.443,14.521 6.903,14.657 6.390 C 14.722 6.147,14.730 5.464,14.671 5.220 C 14.576 4.823,14.326 4.370,14.032 4.061 C 13.485 3.485,12.785 3.233,11.925 3.302 M12.554 4.483 C 12.864 4.945,13.136 5.366,13.159 5.420 C 13.184 5.479,13.200 5.628,13.200 5.792 C 13.200 6.043,13.192 6.082,13.105 6.246 C 12.999 6.444,12.844 6.592,12.634 6.695 C 12.423 6.798,12.046 6.794,11.816 6.686 C 11.600 6.584,11.416 6.400,11.314 6.184 C 11.206 5.954,11.203 5.610,11.306 5.379 C 11.388 5.196,11.641 4.944,11.827 4.859 C 11.971 4.794,12.386 4.777,12.527 4.831 C 12.572 4.848,12.613 4.857,12.619 4.851 C 12.625 4.845,12.525 4.652,12.396 4.422 C 12.022 3.753,11.930 3.583,11.961 3.615 C 11.977 3.631,12.244 4.022,12.554 4.483 " stroke="none" fill-rule="evenodd" fill="black"></path></svg>
